X:1
T: The Caledonian Club
C:
R:Strathspey
Q: 128
K:D
M:4/4
L:1/16
|:A2|FA3 A3F GB3 B3G|FA3 A3d BE3 E3G|FA3 A3F GB3 B3d|A3B cdeg fd3 d2:|
|:g2|fd3 a3d bd3 a4|fd3 a3f be3 e3g|fd3 a3d bd3 a4|A3b agfe fd3 d2:|
